X:1
T:Eichendorff-Lieder
T:Seemanns Abschied
T:Eichendorff-Lieder
T:17. Seemanns Abschied
T:Hugo Wolf
T:Joseph von Eichendorff
T:OpenScore (CC0)
T:OpenScore (CC0)
T:OpenScore (CC0)
T:OpenScore (CC0)
T:OpenScore (CC0)
T:OpenScore (CC0)
T:OpenScore (CC0)
C:Hugo Wolf
Z:Joseph von Eichendorff
Z:OpenScore (CC0)
%%score 1 { ( 2 4 ) | 3 }
L:1/8
Q:1/4=140
M:4/4
K:F
V:1 treble nm="Voice"
V:2 treble nm="Piano"
V:4 treble 
V:3 treble 
V:1
"^Stürmisch bewegt" z8 | z8 | z8 | z4 z2 z!p! c | _d3 d c2 z c | _d2 f2 c2 z c | B2 =d2 e2 f2 | %7
w: |||A-|de, mein Schatz, du|mocht'st mich nicht, ich|war dir zu ge-|
w: |||Fare-|well, false love, didst|say me nay, I|was too poor to|
 e4 e2 z2 |!p! _d2 d _e d3 d | _d3 _e =e3 e | ^f2 d2 (A=B) (AB) | (^c3 ^d) c2 z2 | %12
w: rin- ge.|Einst wan- delst du bei|Mon- den- licht und|hörst ein sü- * sses *|Klin- * gen:|
w: wed thee.|When thou shalt hear, at|close of day, a|sing- ing sweet, * ne'er *|dread _ thee:|
 z4[Q:1/4=130] z2"^geheimnisvoll" ^C2 |[Q:1/4=120] D3 =F A2 =B2 |!pp! ^c3 c c2 ^C2 | D3 =F A2 =B2 | %16
w: Ein|Meer- weib singt, die|Nacht ist lau, die|stil- len Wol- ken|
w: A|mer- maid sings, the|night is dead, dark|clouds a- bove us|
 =c4 c2!f! c2[Q:1/4=140] | f3 f f2 z c | (FB) (df) a4- | a z[Q:1/4=120] f2[Q:1/4=110] a f A _B | %20
w: wan- dern, da|denk' an mich, 's ist|mei- * ne * Frau,|_ nun such' dir ei- nen|
w: hov- er, then|think of me, to|mer- * maid * wed,|_ then seek an- o- ther|
[Q:1/4=100] (c2 d2[Q:1/4=90] e3 f) |[Q:1/4=120] f2[Q:1/4=130] z2[Q:1/4=140] z4 | z8 | z8 | %24
w: an- * * *|dern!|||
w: lov- * * *|er!|||
 z4 z2 z!mp! c | _d3 d c2 F2 | _d2 f2 c2 z!mf! c | !>!B2 !>!=d2 !>!e2 !>!f2 | %28
w: A-|de, ihr Lands- knecht',|Mus- ke- tier'! wir|zieh'n auf wil- dem|
w: Fare-|well, ye war- riors,|musk- et- eers! we|ride the bil- lows|
!f! !>!e2 !>!E2 z2 ^c2 | ^c3 ^d c3 d | ^c2 ^d2 e2 ^e2 | ^f2 d2 (A=B) (AB) | ^c6 ^C2 | %33
w: Ros- se, das|bäumt und ü- ber-|schlägt sich schier vor|man- chem Fel- * sen- *|schlos- se.|
w: foam- ing, our|steed, she pranc- es,|bounds and rears, nor|dreads the rocks * high *|loom- ing.|
 z4 z2!mp! ^F2 | =F3 A =c2 d2 | e3 e e2 E2 | F3 A =c2 d2 | e4 e2 z c |!f! f3 f f z z c | f3 f | %40
w: Der|Was- ser- mann bei|Blit- zes- schein taucht|auf in dunk- len|Näch- ten, der|Hai- fisch schnappt, die|Mö- ven|
w: Gay|sprites be- hold, at|light'n- ing's gleam, our|ship, and glad- ly|hale her; the|dog- fish darts, the|sea- gulls|
 f4- | f2- f z z a A _B | c d !trill(!Te6{f} | f2 z2 z4 | z8 | z8 | z8 | %47
w: schrei'n,|_ _ das ist ein|lu- stig Fech-|ten!||||
w: scream,|_ _ oh joy to|be a sail-|or!||||
[Q:1/4=125]"^ein wenig breiter" _d2 d d c2 F2 | _d2- (3(d_e) d c3 c | %49
w: Streckt nur auf eu- rer|Bä- * * ren- haut da-|
w: Id- lers, the while ye|rest _ _ at home, or,|
[Q:1/4=120] =d3 d[Q:1/4=110]"^dim." =E2 FG |[Q:1/4=105] _A4 G2 C2[Q:1/4=100] | %51
w: heim die fau- len _|Glie- der, Gott|
w: fast a- sleep, lie _|snor- ing, God|
[Q:1/4=140]"^Voriges Zeitmass" _D3 F _A2 A2 | B3 B c4 | c2 c c d2 f2 | %54
w: Va- ter aus dem|Fen- ster schaut,|schickt sei- ne Sünd- flut|
w: gaz- es down, from|Heav'n's high dome,|His se- cond de- luge|
[Q:1/4=130]"^poco rit." f4[Q:1/4=120] e2[Q:1/4=110] z2 | %55
w: wie- der,|
w: pour- ing.|
[Q:1/4=140]"^sehr flott" .c2 .F .A .c2 .c2 | .d2 .f2 .^c2 z c | d3 d (f2 e) d | e4 e2 z e | %59
w: Feld- we- bel, Rei- ter,|Mus- ke- tier, sie|müs- sen all' _ er-|sau- fen, der-|
w: Ser- geants and horse- men|all, are drowned be-|neath the wrath _ of|Heav- en, the|
 g2 f2 e2 d2 | c2 f2 A2 FG | AB cd e2 f2 | (a4 g4) | f2 z2 z4 | z8 | z8 | z8 | z8 | z8 | z8 | z8 |] %71
w: weil mit fri- schem|Win- de wir im *|Pa- * ra- * dies ein-|lau- *|fen.||||||||
w: while our gal- lant|ship is bound for *|Pa- * ra- * dise, our|hav- *|en.||||||||
V:2
!ff! [_d_d']/_e'/[dd']/e'/ [dd']/e'/[dd']/e'/ [dd']/e'/[dd']/e'/ [dd']/e'/[dd']/e'/ | %1
 [_d_d']/_e'/[dd']/e'/ [dd']/e'/[dd']/e'/ [dd']/e'/[dd']/e'/ [dd']/e'/[dd']/e'/ | %2
!ff! (c/c'/=b/c'/) (c/c'/b/c'/) (c/c'/b/c'/) (c/c'/b/c'/) | %3
 (c/c'/=b/c'/) (c/c'/b/c'/) (c/c'/b/c'/) (c/c'/b/c'/) |!p! [_A_d][Ad] z [Ad] [=Af][Af] z [Af] | %5
 [_A_d][Ad] z [Ad] [_Bcg][Bcg] z [Bcg] | [B=d][Bd] z [Bd] [Bb][Bb] z [Bb] | %7
 [Aa][Aa] z [^G^g] [=G=g][Gg] z [cc'] |!pp! [_A_d][Ad] z [Ad] [_G_g][Gg] z [Gg] | %9
!<(! [_A_d][Ad] z [Ad] [^G=d][Gd]!mp! z!<)!!pp! [Ge] | %10
!pp! [^Fd^f][Fdf] z [Fdf] [Fdf][Fdf] z [Fdf] | [^F^c^f][Fcf] z [F^Bf] [^Ec^e][Ece] z [Ece] | %12
!pp! z [^C^c] z [Cc] z [Cc] z [Cc] | z DzDzDzD | z [^c^g^c']z[cgc']z[cgc']z[cgc'] | z DzDzDz_D | %16
 z [_Be_b]z[Beb]z[Beb]!f!z[Beb] | [dfbd'][dfbd'] z [dfbd'] [cfc'][cfc'] z [cfc'] | %18
 [dfbd'][dfbd'] z [dfbd'] [^cfa^c'][cfac'] z [cfac'] | [dfad'][dfad'] z [dfgd'] [fac'f'] z z2 | %20
 z4 [B,EB]2 z2 | %21
!ff! [_d_d']/_e'/[dd']/e'/ [dd']/e'/[dd']/e'/ [dd']/e'/[dd']/e'/ [dd']/e'/[dd']/e'/ | %22
 [_d_d']/_e'/[dd']/e'/ [dd']/e'/[dd']/e'/ [dd']/e'/[dd']/e'/ [dd']/e'/[dd']/e'/ | %23
!ff! (c/c'/=b/c'/) (c/c'/b/c'/) (c/c'/b/c'/) (c/c'/b/c'/) | %24
 (c/c'/=b/c'/) (c/c'/b/c'/) (c/c'/b/c'/) (c/c'/b/c'/) |!p! [_A_d][Ad] z [Ad] [=Af][Af] z [Af] | %26
 [_A_d][Ad] z [Ad] [_Bcg][Bcg] z [Bcg] |!<(! [B=d][Bd] z [Bd] [Bdb][Bdb] z!<)! [Bdb] | %28
!f! [A^ca][Aca] z [^Gd^g] [Acea][Acea] z [Ace] | [_A_d_a][Ada] z [Ada] [d_g_d'][dgd'] z [dgd'] | %30
 [_A_d_a][Ada] z [Ada] [^G=d^g][Gdg] z [Gdg] | [=Ad^f=a][Adfa] z [=Bdf=b] [Adfa][Adfa] z [dfbd'] | %32
!<(! [^f^a^c'^f'][fac'f'] z [f=b^d'f'] [fbc'f'][fbc'f'] z!<)! [^eb^e'] | %33
!ff!!>(! [^f^a^c'^f'] ^FzFzFz!>)!F |!pp! z [=F,=F]z[F,F]z[F,F]z[F,F] | %35
 z{/^d'} [^g=be'] z{/d'}[gbe'] z{/d'}[gbe'] z{/d'}[gbe'] | z [F,F]z[F,F]z[F,F]z[F,F] | %37
 z{/^d'} [^g=be'] z!<(!{/^d'}[gbe'] z{/^d'}[=g_be'] z!<)!{/^d'}[gbe'] | %38
!f! z{/e'} [bd'f'] z{/e'}[bd'f'] z{/e'} [ac'f'] z{/e'}[ac'f'] | %39
 z/ (3(d'/4_e'/4=e'/4 f') z/ (3(d'/4_e'/4=e'/4 f') | %40
 z/!<(! (e'/8f'/8g'/8^g'/8 a') z/!8va(! (e''/8f''/8g''/8^g''/8!<)! a'')!8va)! | %41
!ff! [dfa]2 [df_b][df=b] [cfc'] z z2 | z4 [EBe] z z2 | %43
!ff! [_d_d']/_e'/[dd']/e'/ [dd']/e'/[dd']/e'/ [dd']/e'/[dd']/e'/ [dd']/e'/[dd']/e'/ | %44
 [_d_d']/_e'/[dd']/e'/ [dd']/e'/[dd']/e'/ [dd']/e'/[dd']/e'/ [dd']/e'/[dd']/e'/ | %45
!ff! (c/c'/=b/c'/) (c/c'/b/c'/) (c/c'/b/c'/) (c/c'/b/c'/) | %46
 (c/c'/=b/c'/) (c/c'/b/c'/) (c/c'/b/c'/) (c/c'/b/c'/) | %47
!p! [_A_d_a]2 [Ada][Ada] [=Af=a]2 [Afa][Afa] | [_A_d_a]2 [Ada][Ada] [c=ec']2 [ceg][ce=a] | %49
 [dfb]2 [dfb][dfb] [Bdb]2 [Bdb][Bdb] | [=Bd=b]2 [Bdb][Bdb] [cg_bc']2!pp! [cgbc'][cgbc'] | %51
 [_D_d]2 [Dd][Dd] [_E_Ac_e]2 [EAce][EAce] | %52
"_cresc." [_GB_d_g]2 [GBdg][GBdg] [=Acf=a]2 [Acfa][Acfa] | %53
 [Acea]2 [Acea][Acea] [Bdfb]2 [Bdfb][Bdfb] | %54
!ff! [B_dfb]2 [Bdf=a][Bdfa]!>(! [Bce_a]2 [Bcg]!>)![Bc] | %55
!p! .[CFAc].[CFAc] z .[FAc] .[CFAc].[CFAc] z .[FAc] | .[DBd].[DBd] z .[DBd] .[FA^c].[FAc] z [FAf] | %57
"_cresc." [DBd][DBd] z [DBd] [DBd][Ee][Ff][Gg] |!f! [A^cea][Acea] z [Acea] [Acea][Acea] z [Acea] | %59
"_cresc." [Bdfb][Bdfb] z [Bdfb] [=Bf=b][Bfb] z [Bfb] | %60
 [cfac'][cfac'] z [cfac'] [f=bf'][fbf'] z [fbf'] | %61
 [fac'f'][fac'f'] z [fac'f'] [fac'f'][fac'f'] z [fac'f'] |!ff! !^![fac'f']4 !^![egbe']4 | %63
!fff! [cfac']2!mf! [Ff]!<(![Aa] [cfac']2 [cfac']2 | %64
 [dbd']2!<)!!fff! [ff']2!>(! [^ca^c']3 [cac']!>)! |!mf! [dbd']2 [ff']2!fff! [^ca^c']3 [cac'] | %66
!mf! [dbd']2 [ff']2!ff!!<(! [^ca^c']3 [cac'] | %67
 [dbd']2 [ff']!<)!!fff![^c^c']!>(! [dbd'][ff'][cc'][dbd'] | %68
 [ff']!>)!!mf![^c^c']!<(![dbd'][ee'] [ff'][^f^f'][gg']!<)!!fff![^g^g'] | x6 (3g'a'g' | %70
 [ac'f']2 z2 z4 |] %71
V:3
 [=B,FG]2 [B,FG][B,FG] [B,FG]2 [B,FG][B,FG] | [=B,FG]2 [B,FG][B,FG] [B,FG][B,FG] [B,FG]2 | %2
[K:bass] [C,,C,]2 [^C,,^C,][C,,C,] [D,,D,][D,,D,] [_E,,_E,]2 | %3
 [=E,,=E,][^F,,^F,][G,,G,][^G,,^G,] [A,,A,][B,,B,][=B,,=B,][C,C] | %4
 [=B,F] z [B,F] z [F,C] z [F,C] z | [=B,F] z [B,F] z [C=E] z [CE] z | %6
 [=DF] z [DF] z [G,D] z [G,D] z | [E,A,E] z [E,=B,] z [E,_B,] z [C,E,B,] z | %8
 [_CF] z [CF] z [B,_D] z [B,D] z | [_CF] z [CF] z [=B,=E] z [_B,D] z | %10
 [A,DA] z [A,DA] z [A,DA] z [A,DA] z | [^C,^A,] z [C,=A,] x [C,^G,] z [C,G,] z | %12
{/^B,,,} [^C,,^C,] z{/^B,,,} [C,,C,] z{/^B,,,} [C,,C,] z{/^B,,,} [C,,C,] z | %13
 [D,,D,]z[D,,D,]z[D,,D,]z[D,,D,] z |[K:treble] [=B,^C^E=B]z[B,CEB]z[B,CEB]z[B,CEB] z | %15
[K:bass] [D,,D,]z[D,,D,]z[D,,D,]z[_D,,_D,] z |[K:treble] [CGc]z[CGc]z[CGc]z[CGc] z | %17
[K:bass] [F,B,F] z [F,B,F] z [F,CA] z [F,CA] z | [D,F,B,D] z [D,F,B,D] z [A,^CFA] z [A,CFA] z | %19
[K:treble] [B,DFB] z [=B,FG=B] z [CFAc] z z2 | z4[K:bass] [C,G,C]2 z2 | %21
[K:treble] [=B,FG]2 [B,FG][B,FG] [B,FG]2 [B,FG][B,FG] | %22
 [=B,FG]2 [B,FG][B,FG] [B,FG][B,FG] [B,FG]2 | %23
[K:bass] [C,,C,]2 [^C,,^C,][C,,C,] [D,,D,][D,,D,] [_E,,_E,]2 | %24
 [=E,,=E,][^F,,^F,][G,,G,][^G,,^G,] [A,,A,][B,,B,][=B,,=B,][C,C] | %25
 [=B,F] z [B,F] z [F,C] z [F,C] z | [=B,F] z [B,F] z [C=E] z [CE] z | %27
 [=DF] z [DF] z [G,DE] z [G,DF] z | [E,A,^CE] z [E,=B,E] z [A,,E,C] z [A,CE] z | %29
 [_CF_c] z [_C,F,C] z [B,,_G,B,] z [B,_GB] z | [_CF_c] z [_C,F,C] z [=B,,E,=B,] z [_B,,D,_B,] z | %31
 [A,,D,A,] z [^G,D^F] z [A,DF] z [D,^F,D] z | %32
 [^C,^F,^A,^C] z [F,=B,^D^F] z [C,^G,C] z [^C,,^G,,C,] z | %33
 [^F,,^C,^F,] z{/^E,,} [F,,F,] z{/^E,,}[F,,F,] z{/^E,,}[F,,F,] z | %34
 [=F,,,=F,,]z[F,,,F,,]z[F,,,F,,]z[F,,,F,,] z |[K:treble] [=DE^G=d]z[DEGd]z[DEGd]z[DEGd] z | %36
[K:bass] [F,,,F,,]z[F,,,F,,]z[F,,,F,,]z[F,,,F,,] z | %37
[K:treble] [DE^Gd]z[DEGd]z[^CE=G^c]z[=CEG=c] z | %38
 [F_Bd] z/[K:bass] (B,,/8C,/8D,/8E,/8 F,) z[K:treble] [FAc] z/[K:bass] (C,/8B,,/8A,,/8G,,/8 F,,) z | %39
[K:treble] !>![Bdfb] z/ (F/8E/8D/8C/8 B,) z | !>![A^cfa] z/ (E/8D/8^C/8=B,/8 A,) z | %41
 [DF=B]2 [DF_B][DF^G] [CFA] z z2 | z4[K:bass]!ped! [C,G,C]!ped-up! z z2 | %43
[K:treble] [=B,FG]2 [B,FG][B,FG] [B,FG]2 [B,FG][B,FG] | %44
 [=B,FG]2 [B,FG][B,FG] [B,FG][B,FG] [B,FG]2 | %45
[K:bass] [C,,C,]2 [^C,,^C,][C,,C,] [D,,D,][D,,D,] [_E,,_E,]2 | %46
 [=E,,=E,][^F,,^F,][G,,G,][^G,,^G,] [A,,A,][B,,B,][=B,,=B,][C,C] | %47
 [=B,F]2 [B,F][B,F] [F,C]2 [F,C][F,C] | [=B,F]2 [B,F][B,F] [_B,E=G]2 [B,EG][B,EG] | %49
 [B,FB]2 [B,FB][B,FB] [G,DG]2 [G,DF][G,DE] | [_A,DF]2 [G,DF][F,DF] [E,_B,E]2 [D,B,D][C,B,C] | %51
 [_D,,_D,]2 [C,C][B,,B,] [_A,,_A,]2 [_E,,_E,][F,,F,] | %52
 [_G,,_G,][_D,_D][C,C][B,,B,] [=A,,=A,]2 [=G,,=G,][F,,F,] | %53
 [E,,E,]2 [D,,D,][C,,C,] [B,,,B,,]2 [A,,,A,,][_A,,,_A,,] | %54
 [G,,,G,,]2 [=A,,,=A,,][B,,,B,,] [C,,C,][=D,,=D,][^D,,^D,][E,,E,] | %55
 .[F,,C,F,] z .[F,A,] z .[F,,C,F,] z .[F,A,] z | .[F,,B,,F,] z .[F,B,F] z .[F,,F,] z [F,A,^C] z | %57
 [F,,B,,F,] z [F,B,F] z [B,,,F,,B,,] z [B,,D,B,] z | [A,,E,A,] z [A,^CE] z [A,,E,A,] z [A,CE] z | %59
 [G,,D,G,] z [G,DG] z [G,,D,G,] z [DG] z | [C,F,C] z [CFA] z [D,G,D] z [DG=B] z | %61
 [C,F,C]2[K:treble] !^![Cc]2 !^![A,A]2[K:bass] !^![F,F]2 | !^![C,F,C]4 !^![C,,G,,C,]4 | %63
 [F,,F,][G,,G,][A,,A,][B,,B,] [C,C][B,,B,][A,,A,][G,,G,] | %64
 [F,,F,][G,,G,][A,,A,][B,,B,] [A,,A,][_A,,_A,][G,,G,][_G,,_G,] | %65
!<(! [F,,F,][=G,,=G,][=A,,=A,][B,,B,]!<)!!>(! [A,,A,][_A,,_A,][G,,G,][_G,,_G,]!>)! | %66
!<(! [F,,F,][=G,,=G,][=A,,=A,][B,,B,]!<)! [A,,A,][_A,,_A,][G,,G,][_G,,_G,] | %67
 [F,,F,][=G,,=G,][=A,,=A,][B,,B,] [A,,A,][_A,,_A,][G,,G,][_G,,_G,] | %68
 [F,,F,]2 [F,F][E,E] [D,D][C,C][=B,,=B,][_B,,_B,] | z2 [A,,E,A,]4 [=C,G,=C]2 | [F,A,C]2 z2 z4 |] %71
V:4
 x8 | x8 | x8 | x8 | x8 | x8 | x8 | x8 | x8 | x8 | x8 | x8 | x8 | x8 | x8 | x8 | x8 | x8 | x8 | %19
 x8 | x8 | x8 | x8 | x8 | x8 | x8 | x8 | x8 | x8 | x8 | x8 | x8 | x8 | x8 | x8 | x8 | x8 | x8 | %38
 x8 | x4 | x5/2!8va(! x3/2!8va)! | x8 | x8 | x8 | x8 | x8 | x8 | x8 | x8 | x8 | x8 | x8 | x8 | x8 | %54
 x8 | x8 | x8 | x8 | x8 | x8 | x8 | x8 | x8 | x8 | x8 | x8 | x8 | x8 | x8 | z2 [a^c'e'a']4 [be']2 | %70
 x8 |] %71

